assets/img/another/icon-4.svg

<svg width="88" height="89" viewBox="0 0 88 89" fill="none" xmlns="http://www.w3.org/2000/svg">
<g clip-path="url(#clip0_1184_3507)">
<ellipse cx="35.2004" cy="35.0986" rx="28.9143" ry="28.831" fill="#EDF3F9"/>
<path fill-rule="evenodd" clip-rule="evenodd" d="M64.3685 57.8459L86.1097 77.0918C88.6934 79.3815 88.5494 83.5372 86.1097 85.9801L84.9664 87.125C82.5267 89.5679 78.3855 89.7031 76.0899 87.125L56.8064 65.4992C50.9187 69.8803 43.6266 72.4674 35.7314 72.4674C16.1958 72.4674 0.360352 56.6109 0.360352 37.0495C0.360352 17.4881 16.1958 1.63159 35.7314 1.63159C55.2669 1.63159 71.1024 17.4881 71.1024 37.0495C71.1115 44.82 68.6087 52.0045 64.3685 57.8459ZM35.8304 64.3363C48.0379 64.3363 58.3818 56.2954 61.8388 45.2076C62.64 42.6295 63.0812 39.8891 63.0812 37.0495C63.0812 21.9773 50.8827 9.76266 35.8304 9.76266C20.7782 9.76266 8.57969 21.9773 8.57969 37.0495C8.57969 42.4221 10.1281 47.4342 12.8109 51.653C17.6363 59.2792 26.1437 64.3363 35.8304 64.3363Z" fill="#EDF3F9"/>
<path fill-rule="evenodd" clip-rule="evenodd" d="M64.0082 56.2143L85.7494 75.4602C88.3331 77.7499 88.189 81.9056 85.7494 84.3485L84.606 85.4934C82.1663 87.9363 78.0252 88.0715 75.7295 85.4934L56.446 63.8676C50.5584 68.2486 43.2663 70.8358 35.371 70.8358C15.8355 70.8448 0 54.9793 0 35.4179C0 15.8565 15.8355 0 35.371 0C54.9066 0 70.7421 15.8565 70.7421 35.4179C70.7511 43.1884 68.2484 50.3729 64.0082 56.2143ZM35.4701 62.7047C47.6775 62.7047 58.0215 54.6638 61.4785 43.576C62.2797 40.9979 62.7208 38.2575 62.7208 35.4179C62.7208 20.3457 50.5224 8.13106 35.4701 8.13106C20.4178 8.13106 8.21933 20.3547 8.21933 35.4179C8.21933 40.7905 9.76777 45.8026 12.4505 50.0214C17.2759 57.6476 25.7833 62.7047 35.4701 62.7047Z" fill="#8ABC36"/>
<path fill-rule="evenodd" clip-rule="evenodd" d="M17.717 39.7177H15.4033C15.4033 41.9804 15.8534 43.7833 16.7627 45.1354C17.834 46.731 19.4455 47.5333 21.5971 47.5333C24.4329 47.5333 26.3324 46.2082 27.2957 43.5579C27.8719 41.9894 28.1599 39.4383 28.1599 35.9046C28.1599 32.6233 27.8449 30.1443 27.2057 28.4586C26.2154 25.8354 24.4059 24.5283 21.7951 24.5283C19.8146 24.5283 18.2841 25.1774 17.2128 26.4755C16.1415 27.7735 15.6014 29.4683 15.6014 31.5596H17.87C17.87 30.0993 18.1941 28.9003 18.8423 27.9628C19.4905 27.0253 20.4448 26.5566 21.7141 26.5566C23.1185 26.5566 24.1808 27.3318 24.892 28.8733C25.5222 30.2525 25.8463 32.0554 25.8463 34.291H20.4358V36.3193H25.8463C25.8463 39.3842 25.6302 41.5477 25.1891 42.8097C24.5589 44.6036 23.3616 45.496 21.5971 45.496C20.1387 45.496 19.0944 44.874 18.4552 43.639C17.96 42.6835 17.717 41.3764 17.717 39.7177ZM32.2471 46.9564H29.9334V25.0331H32.2471V35.3727L39.3501 25.0331H42.2399L36.2893 33.2273L42.366 46.9564H39.9263L34.6418 35.544L32.2471 38.9335V46.9564ZM49.505 47.5333C47.3804 47.5333 45.7689 46.758 44.6706 45.2166C43.3473 43.3686 42.6901 40.2947 42.6901 35.9947C42.6901 32.7405 43.0592 30.2345 43.8064 28.4677C44.9047 25.8444 46.8493 24.5373 49.631 24.5373C51.7556 24.5373 53.3671 25.3126 54.4654 26.8541C55.7888 28.702 56.446 31.7489 56.446 35.9947C56.446 39.3031 56.0769 41.8451 55.3297 43.603C54.2223 46.2262 52.2868 47.5333 49.505 47.5333ZM49.46 45.514C51.4406 45.514 52.7909 44.3422 53.5111 41.9984C53.9253 40.6192 54.1323 38.618 54.1323 36.0038C54.1323 33.4707 53.8983 31.4695 53.4301 30.0091C52.6829 27.7194 51.3955 26.5746 49.55 26.5746C47.7585 26.5746 46.4892 27.7194 45.7509 30.0091C45.2558 31.5506 45.0037 33.5518 45.0037 36.0038C45.0037 38.7622 45.1838 40.7634 45.5439 41.9984C46.2011 44.3422 47.5064 45.514 49.46 45.514Z" fill="#8ABC36"/>
</g>
<defs>
<clipPath id="clip0_1184_3507">
<rect width="88" height="89" fill="white"/>
</clipPath>
</defs>
</svg>

<svg width="88" height="89" fill="none" xmlns="http://www.w3.org/2000/svg"><g clip-path="url(#clip0_1184_3507)"><ellipse cx="35.2" cy="35.099" rx="28.914" ry="28.831" fill="#EDF3F9"/><path fill-rule="evenodd" clip-rule="evenodd" d="M64.368 57.846L86.11 77.092c2.583 2.29 2.44 6.445 0 8.888l-1.144 1.145c-2.44 2.443-6.58 2.578-8.876 0L56.806 65.499a35.176 35.176 0 01-21.075 6.968C16.196 72.467.361 56.611.361 37.05c0-19.562 15.835-35.418 35.37-35.418 19.536 0 35.371 15.856 35.371 35.418a35.209 35.209 0 01-6.734 20.796zm-28.538 6.49c12.208 0 22.552-8.04 26.009-19.128a27.453 27.453 0 001.242-8.158c0-15.073-12.198-27.287-27.25-27.287C20.777 9.763 8.58 21.977 8.58 37.05a27.125 27.125 0 004.23 14.603c4.826 7.626 13.334 12.683 23.02 12.683z" fill="#EDF3F9"/><path fill-rule="evenodd" clip-rule="evenodd" d="M64.008 56.214L85.75 75.46c2.584 2.29 2.44 6.446 0 8.889l-1.143 1.144c-2.44 2.443-6.58 2.579-8.876 0L56.446 63.868a35.177 35.177 0 01-21.075 6.968C15.835 70.845 0 54.979 0 35.418S15.835 0 35.371 0s35.371 15.857 35.371 35.418a35.21 35.21 0 01-6.734 20.796zm-28.538 6.49c12.208 0 22.552-8.04 26.008-19.128a27.453 27.453 0 001.243-8.158c0-15.072-12.199-27.287-27.25-27.287-15.053 0-27.252 12.224-27.252 27.287a27.126 27.126 0 004.232 14.603c4.825 7.627 13.332 12.684 23.02 12.684z" fill="#8ABC36"/><path fill-rule="evenodd" clip-rule="evenodd" d="M17.717 39.718h-2.314c0 2.262.45 4.065 1.36 5.417 1.071 1.596 2.682 2.398 4.834 2.398 2.836 0 4.735-1.325 5.699-3.975.576-1.569.864-4.12.864-7.653 0-3.282-.315-5.76-.954-7.446-.99-2.624-2.8-3.93-5.41-3.93-1.981 0-3.512.648-4.583 1.947-1.072 1.297-1.612 2.992-1.612 5.084h2.269c0-1.46.324-2.66.972-3.597.649-.938 1.603-1.406 2.872-1.406 1.405 0 2.467.775 3.178 2.316.63 1.38.954 3.182.954 5.418h-5.41v2.028h5.41c0 3.065-.216 5.229-.657 6.49-.63 1.795-1.827 2.687-3.592 2.687-1.458 0-2.503-.622-3.142-1.857-.495-.956-.738-2.263-.738-3.921zm14.53 7.238h-2.314V25.033h2.314v10.34l7.103-10.34h2.89l-5.95 8.194 6.076 13.73h-2.44l-5.284-11.413-2.395 3.39v8.022zm17.258.577c-2.125 0-3.736-.775-4.834-2.316-1.324-1.848-1.98-4.922-1.98-9.222 0-3.255.368-5.76 1.115-7.527 1.099-2.624 3.043-3.93 5.825-3.93 2.125 0 3.736.775 4.834 2.316 1.324 1.848 1.981 4.895 1.981 9.14 0 3.31-.37 5.851-1.116 7.609-1.108 2.623-3.043 3.93-5.825 3.93zm-.045-2.019c1.98 0 3.33-1.172 4.051-3.516.414-1.379.621-3.38.621-5.994 0-2.533-.234-4.534-.702-5.995-.747-2.29-2.035-3.434-3.88-3.434-1.791 0-3.06 1.144-3.8 3.434-.494 1.542-.746 3.543-.746 5.995 0 2.758.18 4.76.54 5.994.657 2.344 1.962 3.516 3.916 3.516z" fill="#8ABC36"/></g><defs><clipPath id="clip0_1184_3507"><path fill="#fff" d="M0 0h88v89H0z"/></clipPath></defs></svg>
